X:5
T:Phroinsias Ui Mhaonaigh's Mazurka #1
T:Kitty's Fancy
R:mazurka
H:Similar to #11
D:Mairead Ni Mhaonaigh & Frankie Kennedy: Ceol Aduaidh
Z:id:hn-mazurka-5
M:3/4
K:D
DF|AF A2 dc|BG B2 ed|cB c2 BA|F2 F2 DF|
AF A2 dc|BG B2 ed|cB c2 BA|d4:|
|:fg|af d2 A2|c2 B2 ef|ge c2 A2|Bc A2 fg|
af d2 A2|c2 B2 ef|ge cA Bc|d4:|
<end>
<start>
